X:1
T:Blue Jig Harmony
M:6/8
L:1/8
K:C
|: ^c3 edc | ed^c ^c'3 | ^c'ba g2e | ^f2g f2e |
 ^c3 edc | ed^c ^c'3 | ^c'ba ge=c | AGE ^C3 :|
 |: D2G AG^F | D3 AG^F | A2d ed^c | A3 ed^c |
 D2G AG^F | D3 AG^F | edA GED | EDC A,3 :|
